svg/device/qrcode_2_line.svg

<?xml version="1.0" encoding="UTF-8"?>
<svg width="24px" height="24px" viewBox="0 0 24 24" version="1.1" xmlns="http://www.w3.org/2000/svg" xmlns:xlink="http://www.w3.org/1999/xlink">
    <title>qrcode_2_line</title>
    <g id="Icon" stroke="none" stroke-width="1" fill="none" fill-rule="evenodd">
        <g id="Device" transform="translate(-816.000000, -192.000000)" fill-rule="nonzero">
            <g id="qrcode_2_line" transform="translate(816.000000, 192.000000)">
                <path d="M24,0 L24,24 L0,24 L0,0 L24,0 Z M12.5934901,23.257841 L12.5819402,23.2595131 L12.5108777,23.2950439 L12.4918791,23.2987469 L12.4918791,23.2987469 L12.4767152,23.2950439 L12.4056548,23.2595131 C12.3958229,23.2563662 12.3870493,23.2590235 12.3821421,23.2649074 L12.3780323,23.275831 L12.360941,23.7031097 L12.3658947,23.7234994 L12.3769048,23.7357139 L12.4804777,23.8096931 L12.4953491,23.8136134 L12.4953491,23.8136134 L12.5071152,23.8096931 L12.6106902,23.7357139 L12.6232938,23.7196733 L12.6232938,23.7196733 L12.6266527,23.7031097 L12.609561,23.275831 C12.6075724,23.2657013 12.6010112,23.2592993 12.5934901,23.257841 L12.5934901,23.257841 Z M12.8583906,23.1452862 L12.8445485,23.1473072 L12.6598443,23.2396597 L12.6498822,23.2499052 L12.6498822,23.2499052 L12.6471943,23.2611114 L12.6650943,23.6906389 L12.6699349,23.7034178 L12.6699349,23.7034178 L12.678386,23.7104931 L12.8793402,23.8032389 C12.8914285,23.8068999 12.9022333,23.8029875 12.9078286,23.7952264 L12.9118235,23.7811639 L12.8776777,23.1665331 C12.8752882,23.1545897 12.8674102,23.1470016 12.8583906,23.1452862 L12.8583906,23.1452862 Z M12.1430473,23.1473072 C12.1332178,23.1423925 12.1221763,23.1452606 12.1156365,23.1525954 L12.1099173,23.1665331 L12.0757714,23.7811639 C12.0751323,23.7926639 12.0828099,23.8018602 12.0926481,23.8045676 L12.108256,23.8032389 L12.3092106,23.7104931 L12.3186497,23.7024347 L12.3186497,23.7024347 L12.3225043,23.6906389 L12.340401,23.2611114 L12.337245,23.2485176 L12.337245,23.2485176 L12.3277531,23.2396597 L12.1430473,23.1473072 Z" id="MingCute"></path>
                <path d="M11,3 C12.0543909,3 12.9181678,3.81587733 12.9945144,4.85073759 L13,5 L13,11 C13,12.0543909 12.18415,12.9181678 11.1492661,12.9945144 L11,13 L5,13 C3.94563773,13 3.08183483,12.18415 3.00548573,11.1492661 L3,11 L3,5 C3,3.94563773 3.81587733,3.08183483 4.85073759,3.00548573 L5,3 L11,3 Z M11,5 L5,5 L5,11 L11,11 L11,5 Z M8.5,7 C8.74545778,7 8.9496079,7.17687704 8.99194425,7.41012499 L9,7.5 L9,8.5 C9,8.74545778 8.82312296,8.9496079 8.58987501,8.99194425 L8.5,9 L7.5,9 C7.25454222,9 7.0503921,8.82312296 7.00805575,8.58987501 L7,8.5 L7,7.5 C7,7.25454222 7.17687704,7.0503921 7.41012499,7.00805575 L7.5,7 L8.5,7 Z M21,5 C21,3.89543 20.1046,3 19,3 L17,3 C15.8954,3 15,3.89543 15,5 L15,7 C15,8.10457 15.8954,9 17,9 L19,9 C20.1046,9 21,8.10457 21,7 L21,5 Z M17,5 L19,5 L19,7 L17,7 L17,5 Z M7,15 C8.10457,15 9,15.8954 9,17 L9,19 C9,20.1046 8.10457,21 7,21 L5,21 C3.89543,21 3,20.1046 3,19 L3,17 C3,15.8954 3.89543,15 5,15 L7,15 Z M7,17 L5,17 L5,19 L7,19 L7,17 Z M21,17 C21,15.8954 20.1046,15 19,15 L17,15 C15.8954,15 15,15.8954 15,17 L15,19 C15,20.1046 15.8954,21 17,21 L19,21 C20.1046,21 21,20.1046 21,19 L21,17 Z M17,17 L19,17 L19,19 L17,19 L17,17 Z M15,12 C15,11.4477 15.4477,11 16,11 L20,11 C20.5523,11 21,11.4477 21,12 C21,12.5523 20.5523,13 20,13 L16,13 C15.4477,13 15,12.5523 15,12 Z M13,16 C13,15.4477 12.5523,15 12,15 C11.4477,15 11,15.4477 11,16 L11,20 C11,20.5523 11.4477,21 12,21 C12.5523,21 13,20.5523 13,20 L13,16 Z" id="形状" fill="#09244B"></path>
            </g>
        </g>
    </g>
</svg>

<svg xmlns="http://www.w3.org/2000/svg" width="24" height="24"><g fill="none" fill-rule="nonzero"><path d="M24 0v24H0V0h24ZM12.593 23.258l-.011.002-.071.035-.02.004-.014-.004-.071-.035c-.01-.004-.019-.001-.024.005l-.004.01-.017.428.005.02.01.013.104.074.015.004.012-.004.104-.074.012-.016.004-.017-.017-.427c-.002-.01-.009-.017-.017-.018Zm.265-.113-.013.002-.185.093-.01.01-.003.011.018.43.005.012.008.007.201.093c.012.004.023 0 .029-.008l.004-.014-.034-.614c-.003-.012-.01-.02-.02-.022Zm-.715.002a.023.023 0 0 0-.027.006l-.006.014-.034.614c0 .012.007.02.017.024l.015-.002.201-.093.01-.008.004-.011.017-.43-.003-.012-.01-.01-.184-.092Z"/><path fill="#09244B" d="M11 3a2 2 0 0 1 1.995 1.85L13 5v6a2 2 0 0 1-1.85 1.995L11 13H5a2 2 0 0 1-1.995-1.85L3 11V5a2 2 0 0 1 1.85-1.995L5 3h6Zm0 2H5v6h6V5ZM8.5 7a.5.5 0 0 1 .492.41L9 7.5v1a.5.5 0 0 1-.41.492L8.5 9h-1a.5.5 0 0 1-.492-.41L7 8.5v-1a.5.5 0 0 1 .41-.492L7.5 7h1ZM21 5a2 2 0 0 0-2-2h-2a2 2 0 0 0-2 2v2a2 2 0 0 0 2 2h2a2 2 0 0 0 2-2V5Zm-4 0h2v2h-2V5ZM7 15a2 2 0 0 1 2 2v2a2 2 0 0 1-2 2H5a2 2 0 0 1-2-2v-2a2 2 0 0 1 2-2h2Zm0 2H5v2h2v-2Zm14 0a2 2 0 0 0-2-2h-2a2 2 0 0 0-2 2v2a2 2 0 0 0 2 2h2a2 2 0 0 0 2-2v-2Zm-4 0h2v2h-2v-2Zm-2-5a1 1 0 0 1 1-1h4a1 1 0 1 1 0 2h-4a1 1 0 0 1-1-1Zm-2 4a1 1 0 1 0-2 0v4a1 1 0 1 0 2 0v-4Z"/></g></svg>
